X:207
T:Wandering Minstrel, The    
B:CRE1.036 (Ceoltoir Fanach)
F:file ID: cre.1/207wand_m
S:Tommy Potts
M:6/8
Q:160
R:jig
K:D
d/B/|ADD BAF|Ade fdB|ADD BAG|FAF GFE|
ADD BAF|Ade fdB|AdB AFE|FDD D2:|
%B
z|f3 ede|fdB AFA|BdB AFA|AGF E2g|
fg/a/f ede|fdB AFA|BdB AFE|FDD D2:|
%C
g|fdf agf|gbe gbe|fdf afd|ceA ceA|
fdf agf|gbe gbe|f3 ede|fdd d2:|

%%%

